tools/download-figma-icons/icons/solid/gas-meter.svg

<svg width="24" height="24" viewBox="0 0 24 24" fill="none" xmlns="http://www.w3.org/2000/svg">
<path fill-rule="evenodd" clip-rule="evenodd" d="M14.4974 12.0224C14.4974 10.6425 11.9999 4.35752 11.9999 4.35752C11.9999 4.35752 9.50242 10.6425 9.50242 12.0224C9.50242 13.3949 10.6199 14.5199 11.9999 14.5199C13.3799 14.5199 14.4974 13.3949 14.4974 12.0224ZM5.32498 11.9999C5.32498 9.35997 6.88496 6.95999 9.30744 5.895L8.69994 4.52252C5.73747 5.8275 3.82499 8.76747 3.82499 11.9999H5.32498ZM18.6823 11.9999H20.1823C20.1823 8.76747 18.2623 5.8275 15.3074 4.52252L14.6999 5.895C17.1149 6.95999 18.6823 9.35997 18.6823 11.9999ZM3.3075 17.8799H20.6923C21.0148 17.4074 21.2998 16.9049 21.5398 16.3799H2.46C2.7 16.9049 2.985 17.4074 3.3075 17.8799ZM0 11.9999C0 5.38495 5.38495 0 11.9999 0C18.6148 0 23.9998 5.38495 23.9998 11.9999C23.9998 13.9349 23.5423 15.7573 22.7248 17.3773V17.3848L22.6798 17.4748C22.6648 17.5123 22.6498 17.5423 22.6273 17.5723C20.6098 21.3973 16.6048 23.9998 11.9999 23.9998C7.38742 23.9998 3.36747 21.3823 1.36499 17.5498C1.33499 17.5048 1.30499 17.4523 1.28999 17.3998C0.464995 15.7798 0 13.9424 0 11.9999ZM12.9974 12.0227C12.9974 12.5702 12.5549 13.0202 11.9999 13.0202C11.4524 13.0202 11.0024 12.5702 11.0024 12.0302C11.0174 11.6027 11.4374 10.2527 11.9999 8.6402C12.5699 10.2527 12.9824 11.6027 12.9974 12.0227Z" fill="black"/>
</svg>

<svg xmlns="http://www.w3.org/2000/svg" width="24" height="24" fill="none" viewBox="0 0 24 24"><path fill="currentColor" fill-rule="evenodd" d="M14.497 12.022c0-1.38-2.497-7.664-2.497-7.664s-2.498 6.285-2.498 7.664A2.5 2.5 0 0 0 12 14.52a2.5 2.5 0 0 0 2.497-2.498M5.325 12c0-2.64 1.56-5.04 3.982-6.105L8.7 4.523A8.18 8.18 0 0 0 3.825 12zm13.357 0h1.5a8.19 8.19 0 0 0-4.875-7.477L14.7 5.895A6.68 6.68 0 0 1 18.682 12M3.308 17.88h17.384q.486-.711.848-1.5H2.46q.362.789.848 1.5M0 12C0 5.385 5.385 0 12 0s12 5.385 12 12c0 1.935-.458 3.757-1.275 5.377v.008l-.045.09a.4.4 0 0 1-.053.097C20.61 21.397 16.605 24 12 24c-4.613 0-8.633-2.618-10.635-6.45a.6.6 0 0 1-.075-.15A11.9 11.9 0 0 1 0 12m12.997.023a.997.997 0 0 1-1.995.007c.015-.427.435-1.777.998-3.39.57 1.613.982 2.963.997 3.383" clip-rule="evenodd"/></svg>
